{
  "type": "map",
  "version": "1.10",
  "tiledversion": "1.10.2",
  "orientation": "orthogonal",
  "renderorder": "right-down",
  "width": 60,
  "height": 34,
  "tilewidth": 32,
  "tileheight": 32,
  "infinite": false,
  "nextlayerid": 20,
  "nextobjectid": 900,
  "tilesets": [
    {
      "firstgid": 1,
      "source": "city-v3.tsj"
    }
  ],
  "layers": [
    {
      "id": 1,
      "name": "bgtiles",
      "type": "tilelayer",
      "width": 60,
      "height": 34,
      "x": 0,
      "y": 0,
      "opacity": 1,
      "visible": true,
      "data": [
        1,
        1,
        1,
        1,
        1,
        1,
        1,
        1,
        1,
        1,
        1,
        1,
        1,
        1,
        1,
        1,
        1,
        1,
        1,
        1,
        1,
        1,
        1,
        1,
        1,
        1,
        1,
        1,
        1,
        1,
        1,
        1,
        1,
        1,
        1,
        1,
        1,
        1,
        1,
        1,
        1,
        1,
        1,
        1,
        1,
        1,
        1,
        1,
        1,
        1,
        1,
        1,
        1,
        1,
        1,
        1,
        1,
        1,
        1,
        1,
        1,
        1,
        1,
        1,
        1,
        1,
        1,
        1,
        1,
        1,
        1,
        1,
        1,
        1,
        1,
        1,
        1,
        1,
        1,
        1,
        1,
        1,
        1,
        1,
        1,
        1,
        1,
        1,
        1,
        1,
        1,
        1,
        1,
        1,
        1,
        1,
        1,
        1,
        1,
        1,
        1,
        1,
        1,
        1,
        1,
        1,
        1,
        1,
        1,
        1,
        1,
        1,
        1,
        1,
        1,
        1,
        1,
        1,
        1,
        1,
        1,
        1,
        1,
        1,
        1,
        1,
        1,
        1,
        1,
        1,
        1,
        1,
        1,
        1,
        1,
        1,
        1,
        1,
        1,
        1,
        1,
        1,
        1,
        1,
        1,
        1,
        1,
        1,
        1,
        1,
        1,
        1,
        1,
        1,
        1,
        1,
        1,
        1,
        1,
        1,
        1,
        1,
        1,
        1,
        1,
        1,
        1,
        1,
        1,
        1,
        1,
        1,
        1,
        1,
        1,
        1,
        1,
        1,
        1,
        1,
        1,
        1,
        1,
        1,
        1,
        1,
        1,
        1,
        1,
        1,
        1,
        1,
        1,
        1,
        1,
        1,
        1,
        1,
        1,
        1,
        1,
        1,
        1,
        1,
        1,
        1,
        1,
        1,
        1,
        1,
        1,
        1,
        1,
        1,
        1,
        1,
        1,
        1,
        1,
        1,
        1,
        1,
        1,
        1,
        1,
        1,
        1,
        1,
        1,
        1,
        1,
        1,
        1,
        1,
        1,
        1,
        1,
        1,
        1,
        1,
        1,
        1,
        1,
        1,
        1,
        1,
        1,
        1,
        1,
        1,
        1,
        1,
        1,
        1,
        1,
        1,
        1,
        1,
        1,
        1,
        1,
        1,
        1,
        1,
        1,
        1,
        1,
        1,
        1,
        1,
        1,
        1,
        1,
        1,
        1,
        1,
        1,
        1,
        1,
        1,
        1,
        1,
        1,
        1,
        1,
        1,
        1,
        1,
        1,
        1,
        1,
        1,
        1,
        1,
        1,
        1,
        1,
        1,
        1,
        1,
        1,
        1,
        1,
        1,
        1,
        1,
        1,
        1,
        1,
        1,
        1,
        1,
        1,
        1,
        1,
        1,
        1,
        1,
        1,
        1,
        1,
        1,
        1,
        1,
        1,
        1,
        1,
        1,
        1,
        1,
        1,
        1,
        1,
        1,
        1,
        1,
        1,
        1,
        1,
        1,
        1,
        1,
        1,
        1,
        1,
        1,
        1,
        1,
        1,
        1,
        1,
        1,
        1,
        1,
        1,
        1,
        1,
        1,
        1,
        1,
        1,
        1,
        1,
        1,
        1,
        1,
        1,
        1,
        1,
        1,
        1,
        1,
        1,
        1,
        1,
        1,
        1,
        1,
        1,
        1,
        1,
        1,
        1,
        1,
        1,
        1,
        1,
        1,
        1,
        1,
        1,
        1,
        1,
        1,
        1,
        1,
        1,
        1,
        1,
        1,
        1,
        1,
        1,
        1,
        1,
        1,
        1,
        1,
        1,
        1,
        1,
        1,
        1,
        1,
        1,
        1,
        1,
        1,
        1,
        1,
        1,
        1,
        1,
        1,
        1,
        1,
        1,
        1,
        1,
        1,
        1,
        1,
        1,
        1,
        1,
        1,
        1,
        1,
        1,
        1,
        1,
        1,
        1,
        1,
        1,
        1,
        1,
        1,
        1,
        1,
        1,
        1,
        1,
        1,
        1,
        1,
        1,
        1,
        1,
        1,
        1,
        1,
        1,
        1,
        1,
        1,
        1,
        1,
        1,
        1,
        1,
        1,
        1,
        1,
        1,
        1,
        1,
        1,
        1,
        1,
        1,
        1,
        1,
        1,
        1,
        1,
        1,
        1,
        1,
        1,
        1,
        1,
        1,
        1,
        1,
        1,
        1,
        1,
        1,
        1,
        1,
        1,
        1,
        1,
        1,
        1,
        1,
        1,
        1,
        1,
        1,
        1,
        1,
        1,
        1,
        1,
        1,
        1,
        1,
        1,
        1,
        1,
        1,
        1,
        1,
        1,
        1,
        1,
        1,
        1,
        1,
        1,
        1,
        1,
        1,
        1,
        1,
        1,
        1,
        1,
        1,
        1,
        1,
        1,
        1,
        1,
        1,
        1,
        1,
        1,
        1,
        1,
        1,
        1,
        1,
        1,
        1,
        1,
        1,
        1,
        1,
        1,
        1,
        1,
        1,
        1,
        1,
        1,
        1,
        1,
        1,
        1,
        1,
        1,
        1,
        1,
        1,
        1,
        1,
        1,
        1,
        1,
        1,
        1,
        1,
        1,
        1,
        1,
        1,
        1,
        1,
        1,
        1,
        1,
        1,
        1,
        1,
        1,
        1,
        1,
        1,
        1,
        1,
        1,
        1,
        1,
        1,
        1,
        1,
        1,
        1,
        1,
        1,
        1,
        1,
        1,
        1,
        1,
        1,
        1,
        1,
        1,
        1,
        1,
        1,
        1,
        1,
        1,
        1,
        1,
        1,
        1,
        1,
        1,
        1,
        1,
        1,
        1,
        1,
        1,
        1,
        1,
        1,
        1,
        1,
        1,
        1,
        1,
        1,
        1,
        1,
        1,
        1,
        1,
        1,
        1,
        1,
        1,
        1,
        1,
        1,
        1,
        1,
        1,
        1,
        1,
        1,
        1,
        1,
        1,
        1,
        1,
        1,
        1,
        1,
        1,
        1,
        1,
        1,
        1,
        1,
        1,
        1,
        1,
        1,
        1,
        1,
        1,
        1,
        1,
        1,
        1,
        1,
        1,
        1,
        1,
        1,
        1,
        1,
        1,
        1,
        1,
        1,
        1,
        1,
        1,
        1,
        1,
        1,
        1,
        1,
        1,
        1,
        1,
        1,
        1,
        1,
        1,
        1,
        1,
        1,
        1,
        1,
        1,
        1,
        1,
        1,
        1,
        1,
        1,
        1,
        1,
        1,
        1,
        1,
        1,
        1,
        1,
        1,
        1,
        1,
        1,
        1,
        1,
        1,
        1,
        1,
        1,
        1,
        1,
        1,
        1,
        1,
        1,
        1,
        1,
        1,
        1,
        1,
        1,
        1,
        1,
        1,
        1,
        1,
        1,
        1,
        1,
        1,
        1,
        1,
        1,
        1,
        1,
        1,
        1,
        1,
        1,
        1,
        1,
        1,
        1,
        1,
        1,
        1,
        1,
        1,
        1,
        1,
        1,
        1,
        1,
        1,
        1,
        1,
        1,
        1,
        1,
        1,
        1,
        1,
        1,
        1,
        1,
        1,
        1,
        1,
        1,
        1,
        1,
        1,
        1,
        1,
        1,
        1,
        1,
        1,
        1,
        1,
        1,
        1,
        1,
        1,
        1,
        1,
        1,
        1,
        1,
        1,
        1,
        1,
        1,
        1,
        1,
        1,
        1,
        1,
        1,
        1,
        1,
        1,
        1,
        1,
        1,
        1,
        1,
        1,
        1,
        1,
        1,
        1,
        1,
        1,
        1,
        1,
        1,
        1,
        1,
        1,
        1,
        1,
        1,
        1,
        1,
        1,
        1,
        1,
        1,
        1,
        1,
        1,
        1,
        1,
        1,
        1,
        1,
        1,
        1,
        1,
        1,
        1,
        1,
        1,
        1,
        1,
        1,
        1,
        1,
        1,
        1,
        1,
        1,
        1,
        1,
        1,
        1,
        1,
        1,
        1,
        1,
        1,
        1,
        1,
        1,
        1,
        1,
        1,
        1,
        1,
        1,
        1,
        1,
        1,
        1,
        1,
        1,
        1,
        1,
        1,
        1,
        1,
        1,
        1,
        1,
        1,
        1,
        1,
        1,
        1,
        1,
        1,
        1,
        1,
        1,
        1,
        1,
        1,
        1,
        1,
        1,
        1,
        1,
        1,
        1,
        1,
        1,
        1,
        1,
        1,
        1,
        1,
        1,
        1,
        1,
        1,
        1,
        1,
        1,
        1,
        1,
        1,
        1,
        1,
        1,
        1,
        1,
        1,
        1,
        1,
        1,
        1,
        1,
        1,
        1,
        1,
        1,
        1,
        1,
        1,
        1,
        1,
        1,
        1,
        1,
        4,
        4,
        4,
        4,
        4,
        4,
        4,
        4,
        4,
        4,
        4,
        4,
        1,
        1,
        1,
        1,
        1,
        1,
        1,
        1,
        1,
        1,
        1,
        1,
        1,
        1,
        1,
        1,
        1,
        1,
        1,
        1,
        1,
        1,
        1,
        1,
        1,
        1,
        1,
        1,
        1,
        1,
        1,
        1,
        1,
        1,
        1,
        1,
        1,
        1,
        1,
        1,
        1,
        1,
        1,
        1,
        1,
        1,
        1,
        1,
        4,
        4,
        4,
        4,
        4,
        4,
        4,
        4,
        4,
        4,
        4,
        4,
        1,
        1,
        1,
        1,
        1,
        1,
        1,
        1,
        1,
        1,
        1,
        1,
        1,
        1,
        1,
        1,
        1,
        1,
        1,
        1,
        1,
        1,
        1,
        1,
        1,
        1,
        1,
        1,
        1,
        1,
        1,
        1,
        1,
        1,
        1,
        1,
        1,
        1,
        1,
        1,
        1,
        1,
        1,
        1,
        1,
        1,
        1,
        1,
        4,
        4,
        4,
        4,
        4,
        4,
        4,
        4,
        4,
        4,
        4,
        4,
        1,
        1,
        1,
        1,
        1,
        1,
        1,
        1,
        1,
        1,
        1,
        1,
        1,
        1,
        1,
        1,
        1,
        1,
        1,
        1,
        1,
        1,
        1,
        1,
        4,
        4,
        4,
        4,
        4,
        4,
        4,
        4,
        4,
        4,
        4,
        4,
        4,
        4,
        4,
        4,
        4,
        4,
        4,
        4,
        4,
        4,
        4,
        4,
        4,
        4,
        4,
        4,
        4,
        4,
        4,
        4,
        4,
        4,
        4,
        4,
        4,
        4,
        4,
        4,
        4,
        4,
        4,
        4,
        4,
        4,
        4,
        4,
        4,
        4,
        4,
        4,
        4,
        4,
        4,
        4,
        4,
        4,
        4,
        4,
        4,
        4,
        4,
        4,
        4,
        4,
        4,
        4,
        4,
        4,
        4,
        4,
        4,
        4,
        4,
        4,
        4,
        4,
        4,
        4,
        4,
        4,
        4,
        4,
        4,
        4,
        4,
        4,
        4,
        4,
        4,
        4,
        4,
        4,
        4,
        4,
        4,
        4,
        4,
        4,
        4,
        4,
        4,
        4,
        4,
        4,
        4,
        4,
        4,
        4,
        4,
        4,
        4,
        4,
        4,
        4,
        4,
        4,
        4,
        4,
        4,
        4,
        4,
        4,
        4,
        4,
        4,
        4,
        4,
        4,
        4,
        4,
        4,
        4,
        4,
        4,
        4,
        4,
        4,
        4,
        4,
        4,
        4,
        4,
        4,
        4,
        4,
        4,
        4,
        4,
        4,
        4,
        4,
        4,
        4,
        4,
        4,
        4,
        4,
        4,
        4,
        4,
        4,
        4,
        4,
        4,
        4,
        4,
        4,
        4,
        4,
        4,
        4,
        4,
        4,
        4,
        4,
        4,
        4,
        4,
        3,
        3,
        3,
        3,
        3,
        3,
        3,
        3,
        3,
        3,
        3,
        3,
        3,
        3,
        3,
        3,
        3,
        3,
        3,
        3,
        3,
        3,
        3,
        3,
        3,
        3,
        3,
        3,
        3,
        3,
        3,
        3,
        3,
        3,
        3,
        3,
        3,
        3,
        3,
        3,
        3,
        3,
        3,
        3,
        3,
        3,
        3,
        3,
        3,
        3,
        3,
        3,
        3,
        3,
        3,
        3,
        3,
        3,
        3,
        3,
        3,
        3,
        3,
        3,
        3,
        3,
        3,
        3,
        3,
        3,
        3,
        3,
        3,
        3,
        3,
        3,
        3,
        3,
        3,
        3,
        3,
        3,
        3,
        3,
        3,
        3,
        3,
        3,
        3,
        3,
        3,
        3,
        3,
        3,
        3,
        3,
        3,
        3,
        3,
        3,
        3,
        3,
        3,
        3,
        3,
        3,
        3,
        3,
        3,
        3,
        3,
        3,
        3,
        3,
        3,
        3,
        3,
        3,
        3,
        3,
        3,
        3,
        3,
        3,
        3,
        3,
        3,
        3,
        3,
        3,
        3,
        3,
        3,
        3,
        3,
        3,
        3,
        3,
        3,
        3,
        3,
        3,
        3,
        3,
        3,
        3,
        3,
        3,
        3,
        3,
        3,
        3,
        3,
        3,
        3,
        3,
        3,
        3,
        3,
        3,
        3,
        3,
        3,
        3,
        3,
        3,
        3,
        3,
        3,
        3,
        3,
        3,
        3,
        3,
        3,
        3,
        3,
        3,
        3,
        3,
        3,
        3,
        3,
        3,
        3,
        3,
        3,
        3,
        3,
        3,
        3,
        3,
        3,
        3,
        3,
        3,
        3,
        3,
        3,
        3,
        3,
        3,
        3,
        3,
        3,
        3,
        3,
        3,
        3,
        3,
        3,
        3,
        3,
        3,
        3,
        3,
        3,
        3,
        3,
        3,
        3,
        3,
        3,
        3,
        3,
        3,
        3,
        3,
        3,
        3,
        3,
        3,
        3,
        3,
        3,
        3,
        3,
        3,
        3,
        3,
        3,
        3,
        3,
        3,
        3,
        3,
        3,
        3,
        3,
        3,
        3,
        3,
        3,
        3,
        3,
        3,
        3,
        3,
        3,
        3,
        3,
        3,
        3,
        3,
        3,
        3,
        3,
        3,
        3,
        3,
        3,
        3,
        3,
        3,
        3,
        3,
        3,
        3,
        3,
        3,
        3,
        3,
        3,
        3,
        3,
        3,
        3,
        3,
        3,
        3,
        3,
        3,
        3,
        3,
        3,
        3,
        3,
        3,
        3,
        3,
        4,
        4,
        4,
        4,
        4,
        4,
        4,
        4,
        4,
        4,
        4,
        4,
        4,
        4,
        4,
        4,
        4,
        4,
        4,
        4,
        4,
        4,
        4,
        4,
        4,
        4,
        4,
        4,
        4,
        4,
        4,
        4,
        4,
        4,
        4,
        4,
        4,
        4,
        4,
        4,
        4,
        4,
        4,
        4,
        4,
        4,
        4,
        4,
        4,
        4,
        4,
        4,
        4,
        4,
        4,
        4,
        4,
        4,
        4,
        4,
        4,
        4,
        4,
        4,
        4,
        4,
        4,
        4,
        4,
        4,
        4,
        4,
        4,
        4,
        4,
        4,
        4,
        4,
        4,
        4,
        4,
        4,
        4,
        4,
        4,
        4,
        4,
        4,
        4,
        4,
        4,
        4,
        4,
        4,
        4,
        4,
        4,
        4,
        4,
        4,
        4,
        4,
        4,
        4,
        4,
        4,
        4,
        4,
        4,
        4,
        4,
        4,
        4,
        4,
        4,
        4,
        4,
        4,
        4,
        4,
        4,
        4,
        4,
        4,
        4,
        4,
        4,
        4,
        4,
        4,
        4,
        4,
        4,
        4,
        4,
        4,
        4,
        4,
        4,
        4,
        4,
        4,
        4,
        4,
        4,
        4,
        4,
        4,
        4,
        4,
        4,
        4,
        4,
        4,
        4,
        4,
        4,
        4,
        4,
        4,
        4,
        4,
        4,
        4,
        4,
        4,
        4,
        4,
        4,
        4,
        4,
        4,
        4,
        4,
        4,
        4,
        4,
        4,
        4,
        4,
        4,
        4,
        4,
        4,
        4,
        4,
        4,
        4,
        4,
        4,
        4,
        4,
        4,
        4,
        4,
        4,
        4,
        4,
        4,
        4,
        4,
        4,
        4,
        4,
        4,
        4,
        4,
        4,
        4,
        4,
        4,
        4,
        4,
        4,
        4,
        4,
        4,
        4,
        4,
        4,
        4,
        4,
        4,
        4,
        4,
        4,
        4,
        4,
        4,
        4,
        4,
        4,
        4,
        4,
        4,
        4,
        4,
        4,
        4,
        4,
        4,
        4,
        4,
        4,
        4,
        4,
        4,
        4,
        4,
        4,
        4,
        4,
        4,
        4,
        4,
        4,
        4,
        4,
        4,
        4,
        4,
        4,
        4,
        4,
        4,
        4,
        4,
        4,
        4,
        4,
        4,
        4,
        4,
        4,
        4,
        4,
        4,
        4,
        4,
        4,
        4,
        4,
        4,
        4,
        4,
        4,
        4,
        4,
        4,
        4,
        4,
        4,
        4,
        4,
        4,
        4,
        4,
        4,
        4,
        4,
        4,
        4,
        4,
        4,
        4,
        4,
        4,
        4,
        4,
        4,
        4,
        4,
        4,
        4,
        4,
        4,
        4,
        4,
        4,
        4,
        4,
        4,
        4,
        4,
        4,
        4,
        4,
        4,
        4,
        4,
        4,
        4,
        4,
        4,
        4,
        4,
        4,
        4,
        4,
        4,
        4,
        4,
        4,
        4,
        4,
        4,
        4,
        4,
        4,
        4,
        4,
        4,
        4,
        4,
        4,
        4,
        4,
        4,
        4,
        4,
        2,
        2,
        2,
        2,
        2,
        2,
        2,
        2,
        2,
        2,
        2,
        2,
        2,
        2,
        2,
        2,
        2,
        2,
        2,
        2,
        2,
        2,
        2,
        2,
        2,
        2,
        2,
        2,
        2,
        2,
        2,
        2,
        2,
        2,
        2,
        2,
        2,
        2,
        2,
        2,
        2,
        2,
        2,
        2,
        2,
        2,
        2,
        2,
        2,
        2,
        2,
        2,
        2,
        2,
        2,
        2,
        2,
        2,
        2,
        2
      ]
    },
    {
      "id": 2,
      "name": "objmap",
      "type": "tilelayer",
      "width": 60,
      "height": 34,
      "x": 0,
      "y": 0,
      "opacity": 0.3,
      "visible": false,
      "locked": true,
      "data": [
        0,
        0,
        0,
        0,
        0,
        0,
        0,
        0,
        0,
        0,
        0,
        0,
        0,
        0,
        0,
        0,
        0,
        0,
        0,
        0,
        0,
        0,
        0,
        0,
        0,
        0,
        0,
        0,
        0,
        0,
        0,
        0,
        0,
        0,
        0,
        0,
        0,
        0,
        0,
        0,
        0,
        0,
        0,
        0,
        0,
        0,
        0,
        0,
        0,
        0,
        0,
        0,
        0,
        0,
        0,
        0,
        0,
        0,
        0,
        0,
        0,
        0,
        0,
        0,
        0,
        0,
        0,
        0,
        0,
        0,
        0,
        0,
        0,
        0,
        0,
        0,
        0,
        0,
        0,
        0,
        0,
        0,
        0,
        0,
        0,
        0,
        0,
        0,
        0,
        0,
        0,
        0,
        0,
        0,
        0,
        0,
        0,
        0,
        0,
        0,
        0,
        0,
        0,
        0,
        0,
        0,
        0,
        0,
        0,
        0,
        0,
        0,
        0,
        0,
        0,
        0,
        0,
        0,
        0,
        0,
        0,
        0,
        0,
        0,
        0,
        0,
        0,
        0,
        0,
        0,
        0,
        0,
        0,
        0,
        0,
        0,
        0,
        0,
        0,
        0,
        0,
        0,
        0,
        0,
        0,
        0,
        0,
        0,
        0,
        0,
        0,
        0,
        0,
        0,
        0,
        0,
        0,
        0,
        0,
        0,
        0,
        0,
        0,
        0,
        0,
        0,
        0,
        0,
        0,
        0,
        0,
        0,
        0,
        0,
        0,
        0,
        0,
        0,
        0,
        0,
        0,
        0,
        0,
        0,
        0,
        0,
        0,
        0,
        0,
        0,
        0,
        0,
        0,
        0,
        0,
        0,
        0,
        0,
        0,
        0,
        0,
        0,
        0,
        0,
        0,
        0,
        0,
        0,
        0,
        0,
        0,
        0,
        0,
        0,
        0,
        0,
        0,
        0,
        0,
        0,
        0,
        0,
        0,
        0,
        0,
        0,
        0,
        0,
        0,
        0,
        0,
        0,
        0,
        0,
        0,
        0,
        0,
        0,
        0,
        0,
        0,
        0,
        0,
        0,
        0,
        0,
        0,
        0,
        0,
        0,
        0,
        0,
        0,
        0,
        0,
        0,
        0,
        0,
        0,
        0,
        0,
        0,
        0,
        0,
        0,
        0,
        0,
        0,
        0,
        0,
        0,
        0,
        0,
        0,
        0,
        0,
        0,
        0,
        0,
        0,
        0,
        0,
        0,
        0,
        0,
        0,
        0,
        0,
        0,
        0,
        0,
        0,
        0,
        0,
        0,
        0,
        0,
        0,
        0,
        0,
        0,
        0,
        0,
        0,
        0,
        0,
        0,
        0,
        0,
        0,
        0,
        0,
        0,
        0,
        0,
        0,
        0,
        0,
        0,
        0,
        0,
        0,
        0,
        0,
        0,
        0,
        0,
        0,
        0,
        0,
        0,
        0,
        0,
        0,
        0,
        0,
        0,
        0,
        0,
        0,
        0,
        0,
        0,
        0,
        0,
        0,
        0,
        0,
        0,
        0,
        0,
        0,
        0,
        0,
        0,
        0,
        0,
        0,
        0,
        0,
        0,
        0,
        0,
        0,
        0,
        0,
        0,
        0,
        0,
        0,
        0,
        0,
        0,
        0,
        0,
        0,
        0,
        0,
        0,
        0,
        0,
        0,
        0,
        0,
        0,
        0,
        0,
        0,
        0,
        0,
        0,
        0,
        0,
        0,
        0,
        0,
        0,
        0,
        0,
        0,
        0,
        0,
        0,
        0,
        0,
        0,
        0,
        0,
        0,
        0,
        0,
        0,
        0,
        0,
        0,
        0,
        0,
        0,
        0,
        0,
        0,
        0,
        0,
        0,
        0,
        0,
        0,
        0,
        0,
        0,
        0,
        0,
        0,
        0,
        0,
        0,
        0,
        0,
        0,
        0,
        0,
        0,
        0,
        0,
        0,
        0,
        0,
        0,
        0,
        0,
        0,
        0,
        0,
        0,
        0,
        0,
        0,
        0,
        0,
        0,
        0,
        0,
        0,
        0,
        0,
        0,
        0,
        0,
        0,
        0,
        0,
        0,
        0,
        0,
        0,
        0,
        0,
        0,
        0,
        0,
        0,
        0,
        0,
        0,
        0,
        0,
        0,
        0,
        0,
        0,
        0,
        0,
        0,
        0,
        0,
        0,
        0,
        0,
        0,
        0,
        0,
        0,
        0,
        0,
        0,
        0,
        0,
        0,
        0,
        0,
        0,
        0,
        0,
        0,
        0,
        0,
        0,
        0,
        0,
        0,
        0,
        0,
        0,
        0,
        0,
        0,
        0,
        0,
        0,
        0,
        0,
        0,
        0,
        0,
        0,
        0,
        0,
        0,
        0,
        0,
        0,
        0,
        0,
        0,
        0,
        0,
        0,
        0,
        0,
        0,
        0,
        0,
        0,
        0,
        0,
        0,
        0,
        0,
        0,
        0,
        0,
        0,
        0,
        0,
        0,
        0,
        0,
        0,
        0,
        0,
        0,
        0,
        0,
        0,
        0,
        0,
        0,
        0,
        0,
        0,
        0,
        0,
        0,
        0,
        0,
        0,
        0,
        0,
        0,
        0,
        0,
        0,
        0,
        0,
        0,
        0,
        0,
        0,
        0,
        0,
        0,
        0,
        0,
        0,
        0,
        0,
        0,
        0,
        0,
        0,
        0,
        0,
        0,
        0,
        0,
        0,
        0,
        0,
        0,
        0,
        0,
        0,
        0,
        0,
        0,
        0,
        0,
        0,
        0,
        0,
        0,
        0,
        0,
        0,
        0,
        0,
        0,
        0,
        0,
        0,
        0,
        0,
        0,
        0,
        0,
        0,
        0,
        0,
        0,
        0,
        0,
        0,
        0,
        0,
        0,
        0,
        0,
        0,
        0,
        0,
        0,
        0,
        0,
        0,
        0,
        0,
        0,
        0,
        0,
        0,
        0,
        0,
        0,
        0,
        0,
        0,
        0,
        0,
        0,
        0,
        0,
        0,
        0,
        0,
        0,
        0,
        0,
        0,
        0,
        0,
        0,
        0,
        0,
        0,
        0,
        0,
        0,
        0,
        0,
        0,
        0,
        0,
        0,
        0,
        0,
        0,
        0,
        0,
        0,
        0,
        0,
        0,
        0,
        0,
        0,
        0,
        0,
        0,
        0,
        0,
        0,
        0,
        0,
        0,
        0,
        0,
        0,
        0,
        0,
        0,
        0,
        0,
        0,
        0,
        0,
        0,
        0,
        0,
        0,
        0,
        0,
        0,
        0,
        0,
        0,
        0,
        0,
        0,
        0,
        0,
        0,
        0,
        0,
        0,
        0,
        0,
        0,
        0,
        0,
        0,
        0,
        0,
        0,
        0,
        0,
        0,
        0,
        0,
        0,
        0,
        0,
        0,
        0,
        0,
        0,
        0,
        0,
        0,
        0,
        0,
        0,
        0,
        0,
        0,
        0,
        0,
        0,
        0,
        0,
        0,
        0,
        0,
        0,
        0,
        0,
        0,
        0,
        0,
        0,
        0,
        0,
        0,
        0,
        0,
        0,
        0,
        0,
        0,
        0,
        0,
        0,
        0,
        0,
        0,
        0,
        0,
        0,
        0,
        0,
        0,
        0,
        0,
        0,
        0,
        0,
        0,
        0,
        0,
        0,
        0,
        0,
        0,
        0,
        0,
        0,
        0,
        0,
        0,
        0,
        0,
        0,
        0,
        0,
        0,
        0,
        0,
        0,
        0,
        0,
        0,
        0,
        0,
        0,
        0,
        0,
        0,
        0,
        0,
        0,
        0,
        0,
        0,
        0,
        0,
        0,
        0,
        0,
        0,
        0,
        0,
        0,
        0,
        0,
        0,
        0,
        0,
        0,
        0,
        0,
        0,
        0,
        0,
        0,
        0,
        0,
        0,
        0,
        0,
        0,
        0,
        0,
        0,
        0,
        0,
        0,
        0,
        0,
        0,
        0,
        0,
        0,
        0,
        0,
        0,
        0,
        0,
        0,
        0,
        0,
        0,
        0,
        0,
        0,
        0,
        0,
        0,
        0,
        0,
        0,
        0,
        0,
        0,
        0,
        0,
        5,
        5,
        5,
        5,
        5,
        5,
        5,
        5,
        5,
        5,
        5,
        5,
        0,
        0,
        0,
        0,
        0,
        0,
        0,
        0,
        0,
        0,
        0,
        0,
        0,
        0,
        0,
        0,
        0,
        0,
        0,
        0,
        0,
        0,
        0,
        0,
        0,
        0,
        0,
        0,
        0,
        0,
        0,
        0,
        0,
        0,
        0,
        0,
        0,
        0,
        0,
        0,
        0,
        0,
        0,
        0,
        0,
        0,
        0,
        0,
        5,
        5,
        5,
        5,
        5,
        5,
        5,
        5,
        5,
        5,
        5,
        5,
        0,
        0,
        0,
        0,
        0,
        0,
        0,
        0,
        0,
        0,
        0,
        0,
        0,
        0,
        0,
        0,
        0,
        0,
        0,
        0,
        0,
        0,
        0,
        0,
        0,
        5,
        5,
        0,
        5,
        5,
        5,
        5,
        5,
        5,
        5,
        0,
        0,
        5,
        5,
        0,
        0,
        0,
        0,
        0,
        0,
        0,
        0,
        0,
        0,
        0,
        0,
        0,
        0,
        0,
        0,
        0,
        0,
        0,
        0,
        0,
        0,
        0,
        0,
        0,
        5,
        5,
        5,
        5,
        5,
        5,
        5,
        5,
        0,
        0,
        0,
        0,
        0,
        0,
        0,
        0,
        0,
        0,
        0,
        0,
        0,
        5,
        5,
        0,
        5,
        5,
        5,
        5,
        5,
        5,
        5,
        0,
        0,
        5,
        5,
        0,
        0,
        0,
        0,
        0,
        0,
        0,
        0,
        0,
        0,
        0,
        0,
        0,
        0,
        0,
        0,
        0,
        0,
        0,
        0,
        0,
        0,
        0,
        0,
        0,
        5,
        5,
        5,
        5,
        5,
        5,
        5,
        5,
        0,
        0,
        0,
        0,
        0,
        0,
        0,
        0,
        0,
        5,
        5,
        0,
        0,
        0,
        0,
        0,
        0,
        0,
        0,
        0,
        0,
        0,
        0,
        0,
        0,
        0,
        0,
        0,
        0,
        0,
        0,
        0,
        0,
        0,
        0,
        0,
        5,
        5,
        5,
        0,
        0,
        0,
        0,
        0,
        0,
        5,
        5,
        5,
        0,
        0,
        0,
        0,
        5,
        5,
        5,
        5,
        5,
        5,
        0,
        0,
        0,
        0,
        0,
        0,
        0,
        0,
        0,
        0,
        0,
        0,
        0,
        0,
        0,
        0,
        0,
        0,
        0,
        0,
        0,
        0,
        0,
        0,
        0,
        0,
        0,
        0,
        0,
        0,
        0,
        0,
        0,
        0,
        0,
        5,
        0,
        0,
        5,
        5,
        5,
        0,
        0,
        0,
        0,
        0,
        0,
        5,
        5,
        5,
        0,
        0,
        5,
        0,
        0,
        0,
        0,
        0,
        0,
        0,
        0,
        0,
        0,
        0,
        0,
        0,
        0,
        0,
        0,
        0,
        0,
        0,
        0,
        0,
        0,
        5,
        0,
        0,
        0,
        0,
        0,
        0,
        0,
        0,
        0,
        5,
        0,
        0,
        5,
        5,
        5,
        5,
        5,
        5,
        5,
        5,
        0,
        0,
        0,
        0,
        0,
        0,
        0,
        0,
        0,
        0,
        0,
        0,
        0,
        0,
        0,
        0,
        5,
        0,
        0,
        0,
        0,
        0,
        0,
        0,
        0,
        0,
        5,
        5,
        5,
        5,
        5,
        5,
        5,
        5,
        5,
        5,
        5,
        0,
        0,
        0,
        0,
        0,
        0,
        0,
        0,
        0,
        0,
        0,
        0,
        0,
        0,
        0,
        5,
        5,
        5,
        5,
        5,
        5,
        5,
        5,
        0,
        0,
        0,
        0,
        0,
        0,
        0,
        0,
        0,
        0,
        0,
        0,
        0,
        0,
        0,
        0,
        0,
        0,
        0,
        0,
        0,
        0,
        0,
        0,
        0,
        0,
        5,
        5,
        5,
        5,
        5,
        5,
        5,
        5,
        5,
        5,
        0,
        0,
        0,
        0,
        0,
        0,
        0,
        0,
        0,
        0,
        0,
        0,
        0,
        0,
        0,
        0,
        0,
        0,
        0,
        0,
        0,
        0,
        0,
        0,
        0,
        0,
        0,
        0,
        0,
        0,
        0,
        0,
        0,
        0,
        0,
        0,
        0,
        0,
        0,
        0,
        0,
        0,
        0,
        0,
        0,
        0,
        0,
        0,
        0,
        0,
        0,
        0,
        0,
        0,
        0,
        0,
        0,
        0,
        0,
        0,
        0,
        0,
        0,
        0,
        0,
        0,
        0,
        0,
        0,
        0,
        0,
        0,
        0,
        0,
        0,
        0,
        0,
        0,
        0,
        0,
        0,
        0,
        0,
        0,
        0,
        0,
        0,
        0,
        0,
        0,
        0,
        0,
        0,
        0,
        0,
        0,
        0,
        0,
        0,
        0,
        0,
        0,
        0,
        0,
        0,
        0,
        0,
        0,
        0,
        0,
        0,
        0,
        0,
        0,
        0,
        0,
        0,
        0,
        0,
        0,
        0,
        0,
        0,
        0,
        0,
        0,
        0,
        0,
        0,
        0,
        0,
        0,
        0,
        0,
        0,
        0,
        0,
        0,
        0,
        0,
        0,
        0,
        0,
        0,
        0,
        0,
        0,
        0,
        0,
        0,
        0,
        0,
        0,
        0,
        0,
        0,
        0,
        0,
        0,
        0,
        0,
        0,
        0,
        0,
        0,
        0,
        0,
        0,
        0,
        0,
        0,
        0,
        0,
        0,
        0,
        0,
        0,
        0,
        0,
        0,
        0,
        0,
        0,
        0,
        0,
        0,
        0,
        0,
        0,
        0,
        0,
        0,
        0,
        0,
        0,
        0,
        0,
        0,
        0,
        0,
        0,
        0,
        0,
        0,
        0,
        0,
        0,
        0,
        0,
        0,
        0,
        0,
        0,
        0,
        0,
        0,
        0,
        0,
        0,
        0,
        0,
        0,
        0,
        0,
        0,
        0,
        0,
        0,
        0,
        0,
        0,
        0,
        0,
        0,
        0,
        0,
        0,
        0,
        0,
        0,
        0,
        0,
        0,
        5,
        0,
        0,
        0,
        0,
        0,
        0,
        0,
        0,
        0,
        0,
        5,
        0,
        0,
        0,
        0,
        0,
        0,
        0,
        0,
        0,
        5,
        5,
        0,
        0,
        0,
        0,
        0,
        0,
        0,
        0,
        0,
        0,
        0,
        0,
        5,
        5,
        0,
        0,
        0,
        0,
        0,
        0,
        0,
        0,
        0,
        5,
        0,
        0,
        0,
        0,
        0,
        0,
        0,
        0,
        0,
        0,
        5,
        0,
        0,
        0,
        0,
        0,
        0,
        0,
        0,
        0,
        0,
        0,
        0,
        0,
        0,
        0,
        0,
        0,
        0,
        0,
        0,
        0,
        0,
        0,
        0,
        0,
        0,
        5,
        5,
        5,
        0,
        0,
        0,
        0,
        5,
        5,
        5,
        0,
        0,
        0,
        0,
        0,
        0,
        0,
        0,
        0,
        0,
        0,
        0,
        0,
        0,
        0,
        0,
        0,
        0,
        0,
        0,
        0,
        0,
        0,
        0,
        0,
        0,
        0,
        0,
        0,
        0,
        0,
        0,
        0,
        0,
        0,
        0,
        0,
        0,
        0,
        0,
        0,
        0,
        0,
        0,
        0,
        0,
        0,
        0,
        0,
        0,
        0,
        0,
        0,
        0,
        0,
        0,
        0,
        0,
        0,
        0,
        0,
        0,
        0,
        0,
        0,
        0,
        0,
        0,
        0,
        0,
        0,
        0,
        0,
        0,
        0,
        0,
        0,
        0,
        0,
        0,
        0,
        0,
        0,
        0,
        0,
        0,
        0,
        0,
        0,
        0,
        0,
        0,
        0,
        0,
        0,
        0,
        0,
        0,
        0,
        0,
        0,
        0,
        0,
        0,
        0,
        0,
        0,
        0,
        0,
        0,
        0,
        0,
        0,
        0,
        0,
        0,
        0,
        0,
        0,
        0,
        0,
        0,
        0,
        0,
        0,
        0,
        0,
        0,
        0,
        0,
        0,
        0,
        0,
        0,
        0,
        0,
        0,
        0,
        0,
        0,
        0,
        0,
        0,
        0,
        0,
        0,
        5,
        5,
        5,
        5,
        5,
        5,
        5,
        0,
        5,
        5,
        5,
        5,
        5,
        5,
        0,
        0,
        0,
        0,
        0,
        0,
        0,
        0,
        0,
        0,
        0,
        0,
        0,
        0,
        0,
        0,
        0,
        0,
        0,
        0,
        0,
        0,
        0,
        0,
        0,
        0,
        0,
        0,
        0,
        0,
        0,
        0,
        0,
        0,
        0,
        0,
        0,
        0,
        0,
        0,
        0,
        0,
        0,
        0,
        0,
        0,
        5,
        5,
        5,
        5,
        5,
        5,
        5,
        0,
        5,
        5,
        5,
        5,
        5,
        5,
        0,
        0,
        0,
        0,
        0,
        0,
        0,
        0,
        0,
        0,
        0,
        0,
        0,
        0,
        0,
        0,
        0,
        0,
        0,
        0,
        0,
        0,
        0,
        0,
        0,
        0,
        0,
        0,
        0,
        0,
        0,
        0,
        0,
        0,
        0,
        0,
        0,
        0,
        0,
        0,
        0,
        0,
        0,
        0,
        0,
        0,
        0,
        0,
        0,
        0,
        0,
        0,
        0,
        0,
        0,
        0,
        0,
        0,
        0,
        0,
        0,
        0,
        0,
        0,
        0,
        0,
        0,
        0,
        0,
        0,
        0,
        0,
        0,
        0,
        0,
        0,
        0,
        0,
        0,
        0,
        0,
        0,
        0,
        0,
        0,
        0,
        0,
        0,
        0,
        0,
        0,
        0,
        0,
        0,
        0,
        0,
        0,
        0,
        0,
        0,
        0,
        0,
        0,
        0,
        0
      ]
    },
    {
      "id": 3,
      "name": "buildings",
      "type": "objectgroup",
      "draworder": "topdown",
      "visible": true,
      "opacity": 1,
      "objects": [
        {
          "id": 100,
          "name": "government",
          "template": "templates/government_joint.tj",
          "x": 960,
          "y": 510,
          "width": 0,
          "height": 0,
          "rotation": 0,
          "visible": true
        },
        {
          "id": 101,
          "name": "company-a",
          "template": "templates/company_a.tj",
          "x": 245,
          "y": 590,
          "width": 0,
          "height": 0,
          "rotation": 0,
          "visible": true
        },
        {
          "id": 102,
          "name": "company-b",
          "template": "templates/company_b.tj",
          "x": 575,
          "y": 720,
          "width": 0,
          "height": 0,
          "rotation": 0,
          "visible": true
        },
        {
          "id": 103,
          "name": "company-c",
          "template": "templates/company_c.tj",
          "x": 1375,
          "y": 595,
          "width": 0,
          "height": 0,
          "rotation": 0,
          "visible": true
        },
        {
          "id": 104,
          "name": "company-d",
          "template": "templates/company_d.tj",
          "x": 1690,
          "y": 715,
          "width": 0,
          "height": 0,
          "rotation": 0,
          "visible": true
        }
      ]
    },
    {
      "id": 4,
      "name": "living",
      "type": "objectgroup",
      "draworder": "topdown",
      "visible": true,
      "opacity": 1,
      "objects": [
        {
          "id": 200,
          "name": "cafe",
          "template": "templates/talent_market.tj",
          "x": 145,
          "y": 1032,
          "width": 0,
          "height": 0,
          "rotation": 0,
          "visible": true
        },
        {
          "id": 201,
          "name": "community",
          "template": "templates/office_small_01.tj",
          "x": 390,
          "y": 1028,
          "width": 0,
          "height": 0,
          "rotation": 0,
          "visible": true
        },
        {
          "id": 202,
          "name": "apartment",
          "type": "",
          "x": 625,
          "y": 1034,
          "width": 0,
          "height": 0,
          "rotation": 0,
          "visible": true,
          "properties": [
            {
              "name": "kind",
              "type": "string",
              "value": "living"
            },
            {
              "name": "assetId",
              "type": "string",
              "value": "apartment"
            },
            {
              "name": "dayImage",
              "type": "string",
              "value": "/policy-town/assets/city-v3/living/apartment-day-v3.png"
            },
            {
              "name": "nightImage",
              "type": "string",
              "value": "/policy-town/assets/city-v3/living/apartment-night-v3.png"
            },
            {
              "name": "displayWidth",
              "type": "int",
              "value": 164
            },
            {
              "name": "displayHeight",
              "type": "int",
              "value": 232
            },
            {
              "name": "anchorX",
              "type": "float",
              "value": 0.5
            },
            {
              "name": "anchorY",
              "type": "float",
              "value": 1
            },
            {
              "name": "zIndex",
              "type": "int",
              "value": 70
            }
          ]
        },
        {
          "id": 203,
          "name": "park",
          "template": "templates/plaza_forecourt.tj",
          "x": 960,
          "y": 925,
          "width": 0,
          "height": 0,
          "rotation": 0,
          "visible": true
        },
        {
          "id": 204,
          "name": "townhouses",
          "type": "",
          "x": 1300,
          "y": 1028,
          "width": 0,
          "height": 0,
          "rotation": 0,
          "visible": true,
          "properties": [
            {
              "name": "kind",
              "type": "string",
              "value": "living"
            },
            {
              "name": "assetId",
              "type": "string",
              "value": "townhouses"
            },
            {
              "name": "dayImage",
              "type": "string",
              "value": "/policy-town/assets/city-v3/living/townhouses-day-v3.png"
            },
            {
              "name": "nightImage",
              "type": "string",
              "value": "/policy-town/assets/city-v3/living/townhouses-night-v3.png"
            },
            {
              "name": "displayWidth",
              "type": "int",
              "value": 280
            },
            {
              "name": "displayHeight",
              "type": "int",
              "value": 218
            },
            {
              "name": "anchorX",
              "type": "float",
              "value": 0.5
            },
            {
              "name": "anchorY",
              "type": "float",
              "value": 1
            },
            {
              "name": "zIndex",
              "type": "int",
              "value": 70
            }
          ]
        },
        {
          "id": 205,
          "name": "bus-shelter",
          "type": "",
          "x": 1655,
          "y": 1018,
          "width": 0,
          "height": 0,
          "rotation": 0,
          "visible": true,
          "properties": [
            {
              "name": "kind",
              "type": "string",
              "value": "living"
            },
            {
              "name": "assetId",
              "type": "string",
              "value": "bus-shelter"
            },
            {
              "name": "dayImage",
              "type": "string",
              "value": "/policy-town/assets/city-v3/living/bus-shelter-day-v3.png"
            },
            {
              "name": "nightImage",
              "type": "string",
              "value": "/policy-town/assets/city-v3/living/bus-shelter-night-v3.png"
            },
            {
              "name": "displayWidth",
              "type": "int",
              "value": 205
            },
            {
              "name": "displayHeight",
              "type": "int",
              "value": 169
            },
            {
              "name": "anchorX",
              "type": "float",
              "value": 0.5
            },
            {
              "name": "anchorY",
              "type": "float",
              "value": 1
            },
            {
              "name": "zIndex",
              "type": "int",
              "value": 70
            }
          ]
        }
      ]
    },
    {
      "id": 5,
      "name": "props",
      "type": "objectgroup",
      "draworder": "topdown",
      "visible": true,
      "opacity": 1,
      "objects": [
        {
          "id": 600,
          "name": "street_tree-601",
          "template": "templates/street_tree.tj",
          "x": 60,
          "y": 580,
          "width": 0,
          "height": 0,
          "rotation": 0,
          "visible": true
        },
        {
          "id": 601,
          "name": "street_tree-602",
          "template": "templates/street_tree.tj",
          "x": 445,
          "y": 575,
          "width": 0,
          "height": 0,
          "rotation": 0,
          "visible": true
        },
        {
          "id": 602,
          "name": "street_tree-603",
          "template": "templates/street_tree.tj",
          "x": 690,
          "y": 680,
          "width": 0,
          "height": 0,
          "rotation": 0,
          "visible": true
        },
        {
          "id": 603,
          "name": "street_tree-604",
          "template": "templates/street_tree.tj",
          "x": 1230,
          "y": 675,
          "width": 0,
          "height": 0,
          "rotation": 0,
          "visible": true
        },
        {
          "id": 604,
          "name": "street_tree-605",
          "template": "templates/street_tree.tj",
          "x": 1515,
          "y": 585,
          "width": 0,
          "height": 0,
          "rotation": 0,
          "visible": true
        },
        {
          "id": 605,
          "name": "street_tree-606",
          "template": "templates/street_tree.tj",
          "x": 1860,
          "y": 590,
          "width": 0,
          "height": 0,
          "rotation": 0,
          "visible": true
        },
        {
          "id": 606,
          "name": "street_tree-607",
          "template": "templates/street_tree.tj",
          "x": 745,
          "y": 890,
          "width": 0,
          "height": 0,
          "rotation": 0,
          "visible": true
        },
        {
          "id": 607,
          "name": "street_tree-608",
          "template": "templates/street_tree.tj",
          "x": 1175,
          "y": 890,
          "width": 0,
          "height": 0,
          "rotation": 0,
          "visible": true
        },
        {
          "id": 608,
          "name": "street_light-609",
          "template": "templates/street_light.tj",
          "x": 55,
          "y": 690,
          "width": 0,
          "height": 0,
          "rotation": 0,
          "visible": true
        },
        {
          "id": 609,
          "name": "street_light-610",
          "template": "templates/street_light.tj",
          "x": 375,
          "y": 690,
          "width": 0,
          "height": 0,
          "rotation": 0,
          "visible": true
        },
        {
          "id": 610,
          "name": "street_light-611",
          "template": "templates/street_light.tj",
          "x": 695,
          "y": 690,
          "width": 0,
          "height": 0,
          "rotation": 0,
          "visible": true
        },
        {
          "id": 611,
          "name": "street_light-612",
          "template": "templates/street_light.tj",
          "x": 1225,
          "y": 690,
          "width": 0,
          "height": 0,
          "rotation": 0,
          "visible": true
        },
        {
          "id": 612,
          "name": "street_light-613",
          "template": "templates/street_light.tj",
          "x": 1545,
          "y": 690,
          "width": 0,
          "height": 0,
          "rotation": 0,
          "visible": true
        },
        {
          "id": 613,
          "name": "street_light-614",
          "template": "templates/street_light.tj",
          "x": 1865,
          "y": 690,
          "width": 0,
          "height": 0,
          "rotation": 0,
          "visible": true
        },
        {
          "id": 614,
          "name": "street_light-615",
          "template": "templates/street_light.tj",
          "x": 55,
          "y": 885,
          "width": 0,
          "height": 0,
          "rotation": 0,
          "visible": true
        },
        {
          "id": 615,
          "name": "street_light-616",
          "template": "templates/street_light.tj",
          "x": 395,
          "y": 885,
          "width": 0,
          "height": 0,
          "rotation": 0,
          "visible": true
        },
        {
          "id": 616,
          "name": "street_light-617",
          "template": "templates/street_light.tj",
          "x": 720,
          "y": 885,
          "width": 0,
          "height": 0,
          "rotation": 0,
          "visible": true
        },
        {
          "id": 617,
          "name": "street_light-618",
          "template": "templates/street_light.tj",
          "x": 1200,
          "y": 885,
          "width": 0,
          "height": 0,
          "rotation": 0,
          "visible": true
        },
        {
          "id": 618,
          "name": "street_light-619",
          "template": "templates/street_light.tj",
          "x": 1525,
          "y": 885,
          "width": 0,
          "height": 0,
          "rotation": 0,
          "visible": true
        },
        {
          "id": 619,
          "name": "street_light-620",
          "template": "templates/street_light.tj",
          "x": 1865,
          "y": 885,
          "width": 0,
          "height": 0,
          "rotation": 0,
          "visible": true
        },
        {
          "id": 620,
          "name": "bench-621",
          "template": "templates/bench.tj",
          "x": 810,
          "y": 650,
          "width": 0,
          "height": 0,
          "rotation": 0,
          "visible": true
        },
        {
          "id": 621,
          "name": "bench-622",
          "template": "templates/bench.tj",
          "x": 1110,
          "y": 650,
          "width": 0,
          "height": 0,
          "rotation": 0,
          "visible": true
        },
        {
          "id": 622,
          "name": "bench-623",
          "template": "templates/bench.tj",
          "x": 850,
          "y": 920,
          "width": 0,
          "height": 0,
          "rotation": 0,
          "visible": true
        },
        {
          "id": 623,
          "name": "bench-624",
          "template": "templates/bench.tj",
          "x": 1070,
          "y": 920,
          "width": 0,
          "height": 0,
          "rotation": 0,
          "visible": true
        },
        {
          "id": 624,
          "name": "traffic_signal-625",
          "template": "templates/traffic_signal.tj",
          "x": 770,
          "y": 710,
          "width": 0,
          "height": 0,
          "rotation": 0,
          "visible": true
        },
        {
          "id": 625,
          "name": "traffic_signal-626",
          "template": "templates/traffic_signal.tj",
          "x": 1150,
          "y": 710,
          "width": 0,
          "height": 0,
          "rotation": 0,
          "visible": true
        },
        {
          "id": 626,
          "name": "traffic_signal-627",
          "template": "templates/traffic_signal.tj",
          "x": 770,
          "y": 870,
          "width": 0,
          "height": 0,
          "rotation": 0,
          "visible": true
        },
        {
          "id": 627,
          "name": "traffic_signal-628",
          "template": "templates/traffic_signal.tj",
          "x": 1150,
          "y": 870,
          "width": 0,
          "height": 0,
          "rotation": 0,
          "visible": true
        },
        {
          "id": 628,
          "name": "trash_bin-629",
          "template": "templates/trash_bin.tj",
          "x": 260,
          "y": 1048,
          "width": 0,
          "height": 0,
          "rotation": 0,
          "visible": true
        },
        {
          "id": 629,
          "name": "trash_bin-630",
          "template": "templates/trash_bin.tj",
          "x": 490,
          "y": 1038,
          "width": 0,
          "height": 0,
          "rotation": 0,
          "visible": true
        },
        {
          "id": 630,
          "name": "trash_bin-631",
          "template": "templates/trash_bin.tj",
          "x": 1410,
          "y": 1046,
          "width": 0,
          "height": 0,
          "rotation": 0,
          "visible": true
        },
        {
          "id": 631,
          "name": "trash_bin-632",
          "template": "templates/trash_bin.tj",
          "x": 1790,
          "y": 1038,
          "width": 0,
          "height": 0,
          "rotation": 0,
          "visible": true
        },
        {
          "id": 632,
          "name": "traffic_cone-633",
          "template": "templates/traffic_cone.tj",
          "x": 685,
          "y": 704,
          "width": 0,
          "height": 0,
          "rotation": 0,
          "visible": true
        },
        {
          "id": 633,
          "name": "traffic_cone-634",
          "template": "templates/traffic_cone.tj",
          "x": 720,
          "y": 704,
          "width": 0,
          "height": 0,
          "rotation": 0,
          "visible": true
        },
        {
          "id": 634,
          "name": "traffic_cone-635",
          "template": "templates/traffic_cone.tj",
          "x": 1510,
          "y": 704,
          "width": 0,
          "height": 0,
          "rotation": 0,
          "visible": true
        },
        {
          "id": 635,
          "name": "fire_hydrant-636",
          "template": "templates/fire_hydrant.tj",
          "x": 465,
          "y": 694,
          "width": 0,
          "height": 0,
          "rotation": 0,
          "visible": true
        },
        {
          "id": 636,
          "name": "fire_hydrant-637",
          "template": "templates/fire_hydrant.tj",
          "x": 1470,
          "y": 694,
          "width": 0,
          "height": 0,
          "rotation": 0,
          "visible": true
        },
        {
          "id": 637,
          "name": "fire_hydrant-638",
          "template": "templates/fire_hydrant.tj",
          "x": 805,
          "y": 1048,
          "width": 0,
          "height": 0,
          "rotation": 0,
          "visible": true
        },
        {
          "id": 638,
          "name": "fire_hydrant-639",
          "template": "templates/fire_hydrant.tj",
          "x": 1120,
          "y": 1048,
          "width": 0,
          "height": 0,
          "rotation": 0,
          "visible": true
        },
        {
          "id": 639,
          "name": "mailbox-640",
          "template": "templates/mailbox.tj",
          "x": 1180,
          "y": 1045,
          "width": 0,
          "height": 0,
          "rotation": 0,
          "visible": true
        },
        {
          "id": 640,
          "name": "mailbox-641",
          "template": "templates/mailbox.tj",
          "x": 1515,
          "y": 1045,
          "width": 0,
          "height": 0,
          "rotation": 0,
          "visible": true
        },
        {
          "id": 641,
          "name": "vending_machine-642",
          "template": "templates/vending_machine.tj",
          "x": 245,
          "y": 1018,
          "width": 0,
          "height": 0,
          "rotation": 0,
          "visible": true
        },
        {
          "id": 642,
          "name": "vending_machine-643",
          "template": "templates/vending_machine.tj",
          "x": 1772,
          "y": 1008,
          "width": 0,
          "height": 0,
          "rotation": 0,
          "visible": true
        },
        {
          "id": 643,
          "name": "flower_box-644",
          "template": "templates/flower_box.tj",
          "x": 725,
          "y": 1048,
          "width": 0,
          "height": 0,
          "rotation": 0,
          "visible": true
        },
        {
          "id": 644,
          "name": "flower_box-645",
          "template": "templates/flower_box.tj",
          "x": 1195,
          "y": 1048,
          "width": 0,
          "height": 0,
          "rotation": 0,
          "visible": true
        },
        {
          "id": 645,
          "name": "manhole-646",
          "template": "templates/manhole.tj",
          "x": 470,
          "y": 780,
          "width": 0,
          "height": 0,
          "rotation": 0,
          "visible": true
        },
        {
          "id": 646,
          "name": "manhole-647",
          "template": "templates/manhole.tj",
          "x": 1100,
          "y": 800,
          "width": 0,
          "height": 0,
          "rotation": 0,
          "visible": true
        },
        {
          "id": 647,
          "name": "manhole-648",
          "template": "templates/manhole.tj",
          "x": 1770,
          "y": 780,
          "width": 0,
          "height": 0,
          "rotation": 0,
          "visible": true
        },
        {
          "id": 648,
          "name": "road_crack-649",
          "template": "templates/road_crack.tj",
          "x": 250,
          "y": 790,
          "width": 0,
          "height": 0,
          "rotation": 0,
          "visible": true
        },
        {
          "id": 649,
          "name": "road_crack-650",
          "template": "templates/road_crack.tj",
          "x": 1325,
          "y": 785,
          "width": 0,
          "height": 0,
          "rotation": 0,
          "visible": true
        },
        {
          "id": 650,
          "name": "storm_drain-651",
          "template": "templates/storm_drain.tj",
          "x": 590,
          "y": 728,
          "width": 0,
          "height": 0,
          "rotation": 0,
          "visible": true
        },
        {
          "id": 651,
          "name": "storm_drain-652",
          "template": "templates/storm_drain.tj",
          "x": 965,
          "y": 842,
          "width": 0,
          "height": 0,
          "rotation": 0,
          "visible": true
        },
        {
          "id": 652,
          "name": "storm_drain-653",
          "template": "templates/storm_drain.tj",
          "x": 1590,
          "y": 728,
          "width": 0,
          "height": 0,
          "rotation": 0,
          "visible": true
        },
        {
          "id": 653,
          "name": "storm_drain-654",
          "template": "templates/storm_drain.tj",
          "x": 1850,
          "y": 842,
          "width": 0,
          "height": 0,
          "rotation": 0,
          "visible": true
        }
      ]
    },
    {
      "id": 6,
      "name": "parking",
      "type": "objectgroup",
      "draworder": "topdown",
      "visible": true,
      "opacity": 1,
      "objects": [
        {
          "id": 300,
          "name": "parking-1",
          "template": "templates/parking_car.tj",
          "x": 120,
          "y": 670,
          "width": 0,
          "height": 0,
          "rotation": 0,
          "visible": true
        },
        {
          "id": 301,
          "name": "parking-2",
          "template": "templates/parking_car.tj",
          "x": 300,
          "y": 670,
          "width": 0,
          "height": 0,
          "rotation": 0,
          "visible": true
        },
        {
          "id": 302,
          "name": "parking-3",
          "template": "templates/parking_car.tj",
          "x": 900,
          "y": 670,
          "width": 0,
          "height": 0,
          "rotation": 0,
          "visible": true
        },
        {
          "id": 303,
          "name": "parking-4",
          "template": "templates/parking_car.tj",
          "x": 1020,
          "y": 670,
          "width": 0,
          "height": 0,
          "rotation": 180,
          "visible": true
        },
        {
          "id": 304,
          "name": "parking-5",
          "template": "templates/parking_car.tj",
          "x": 1300,
          "y": 670,
          "width": 0,
          "height": 0,
          "rotation": 180,
          "visible": true
        },
        {
          "id": 305,
          "name": "parking-6",
          "template": "templates/parking_car.tj",
          "x": 1420,
          "y": 670,
          "width": 0,
          "height": 0,
          "rotation": 180,
          "visible": true
        }
      ]
    },
    {
      "id": 7,
      "name": "vehicle_routes",
      "type": "objectgroup",
      "draworder": "topdown",
      "visible": true,
      "opacity": 1,
      "objects": [
        {
          "id": 400,
          "name": "route-east-1",
          "type": "",
          "x": -120,
          "y": 755,
          "width": 0,
          "height": 0,
          "rotation": 0,
          "visible": true,
          "polyline": [
            {
              "x": 0,
              "y": 0
            },
            {
              "x": 2160,
              "y": 0
            }
          ],
          "properties": [
            {
              "name": "usage",
              "type": "string",
              "value": "vehicle"
            },
            {
              "name": "speedClass",
              "type": "string",
              "value": "normal"
            }
          ]
        },
        {
          "id": 401,
          "name": "route-west-1",
          "type": "",
          "x": 2040,
          "y": 815,
          "width": 0,
          "height": 0,
          "rotation": 0,
          "visible": true,
          "polyline": [
            {
              "x": 0,
              "y": 0
            },
            {
              "x": -2160,
              "y": 0
            }
          ],
          "properties": [
            {
              "name": "usage",
              "type": "string",
              "value": "vehicle"
            },
            {
              "name": "speedClass",
              "type": "string",
              "value": "fast"
            }
          ]
        },
        {
          "id": 402,
          "name": "route-east-2",
          "type": "",
          "x": -160,
          "y": 755,
          "width": 0,
          "height": 0,
          "rotation": 0,
          "visible": true,
          "polyline": [
            {
              "x": 0,
              "y": 0
            },
            {
              "x": 2200,
              "y": 0
            }
          ],
          "properties": [
            {
              "name": "usage",
              "type": "string",
              "value": "vehicle"
            },
            {
              "name": "speedClass",
              "type": "string",
              "value": "slow"
            }
          ]
        },
        {
          "id": 403,
          "name": "route-bus",
          "type": "",
          "x": -250,
          "y": 815,
          "width": 0,
          "height": 0,
          "rotation": 0,
          "visible": true,
          "polyline": [
            {
              "x": 0,
              "y": 0
            },
            {
              "x": 1700,
              "y": 0
            },
            {
              "x": 1910,
              "y": 0
            },
            {
              "x": 2290,
              "y": 0
            }
          ],
          "properties": [
            {
              "name": "usage",
              "type": "string",
              "value": "bus"
            },
            {
              "name": "speedClass",
              "type": "string",
              "value": "bus"
            },
            {
              "name": "stationId",
              "type": "string",
              "value": "bus-stop-east"
            }
          ]
        }
      ]
    },
    {
      "id": 8,
      "name": "actor_routes",
      "type": "objectgroup",
      "draworder": "topdown",
      "visible": true,
      "opacity": 1,
      "objects": [
        {
          "id": 500,
          "name": "gov-1",
          "type": "",
          "x": 860,
          "y": 560,
          "width": 0,
          "height": 0,
          "rotation": 0,
          "visible": true,
          "polyline": [
            {
              "x": 0,
              "y": 0
            },
            {
              "x": 70,
              "y": 0
            },
            {
              "x": 70,
              "y": 30
            },
            {
              "x": 0,
              "y": 30
            }
          ],
          "properties": [
            {
              "name": "usage",
              "type": "string",
              "value": "actor"
            },
            {
              "name": "skin",
              "type": "string",
              "value": "f1"
            },
            {
              "name": "speed",
              "type": "float",
              "value": 20
            },
            {
              "name": "phase",
              "type": "float",
              "value": 0.05
            }
          ]
        },
        {
          "id": 501,
          "name": "gov-2",
          "type": "",
          "x": 990,
          "y": 560,
          "width": 0,
          "height": 0,
          "rotation": 0,
          "visible": true,
          "polyline": [
            {
              "x": 0,
              "y": 0
            },
            {
              "x": 70,
              "y": 0
            },
            {
              "x": 70,
              "y": 30
            },
            {
              "x": 0,
              "y": 30
            }
          ],
          "properties": [
            {
              "name": "usage",
              "type": "string",
              "value": "actor"
            },
            {
              "name": "skin",
              "type": "string",
              "value": "f2"
            },
            {
              "name": "speed",
              "type": "float",
              "value": 18
            },
            {
              "name": "phase",
              "type": "float",
              "value": 0.31
            }
          ]
        },
        {
          "id": 502,
          "name": "gov-3",
          "type": "",
          "x": 870,
          "y": 620,
          "width": 0,
          "height": 0,
          "rotation": 0,
          "visible": true,
          "polyline": [
            {
              "x": 0,
              "y": 0
            },
            {
              "x": 80,
              "y": 0
            },
            {
              "x": 80,
              "y": 35
            },
            {
              "x": 0,
              "y": 35
            }
          ],
          "properties": [
            {
              "name": "usage",
              "type": "string",
              "value": "actor"
            },
            {
              "name": "skin",
              "type": "string",
              "value": "f3"
            },
            {
              "name": "speed",
              "type": "float",
              "value": 19
            },
            {
              "name": "phase",
              "type": "float",
              "value": 0.59
            }
          ]
        },
        {
          "id": 503,
          "name": "gov-4",
          "type": "",
          "x": 970,
          "y": 620,
          "width": 0,
          "height": 0,
          "rotation": 0,
          "visible": true,
          "polyline": [
            {
              "x": 0,
              "y": 0
            },
            {
              "x": 70,
              "y": 0
            },
            {
              "x": 70,
              "y": 35
            },
            {
              "x": 0,
              "y": 35
            }
          ],
          "properties": [
            {
              "name": "usage",
              "type": "string",
              "value": "actor"
            },
            {
              "name": "skin",
              "type": "string",
              "value": "f4"
            },
            {
              "name": "speed",
              "type": "float",
              "value": 17
            },
            {
              "name": "phase",
              "type": "float",
              "value": 0.82
            }
          ]
        },
        {
          "id": 504,
          "name": "enterprise-a",
          "type": "",
          "x": 165,
          "y": 625,
          "width": 0,
          "height": 0,
          "rotation": 0,
          "visible": true,
          "polyline": [
            {
              "x": 0,
              "y": 0
            },
            {
              "x": 160,
              "y": 0
            },
            {
              "x": 160,
              "y": 25
            },
            {
              "x": 0,
              "y": 25
            }
          ],
          "properties": [
            {
              "name": "usage",
              "type": "string",
              "value": "actor"
            },
            {
              "name": "skin",
              "type": "string",
              "value": "f5"
            },
            {
              "name": "speed",
              "type": "float",
              "value": 18
            },
            {
              "name": "phase",
              "type": "float",
              "value": 0.18
            }
          ]
        },
        {
          "id": 505,
          "name": "enterprise-b",
          "type": "",
          "x": 495,
          "y": 635,
          "width": 0,
          "height": 0,
          "rotation": 0,
          "visible": true,
          "polyline": [
            {
              "x": 0,
              "y": 0
            },
            {
              "x": 160,
              "y": 0
            },
            {
              "x": 160,
              "y": 20
            },
            {
              "x": 0,
              "y": 20
            }
          ],
          "properties": [
            {
              "name": "usage",
              "type": "string",
              "value": "actor"
            },
            {
              "name": "skin",
              "type": "string",
              "value": "f6"
            },
            {
              "name": "speed",
              "type": "float",
              "value": 19
            },
            {
              "name": "phase",
              "type": "float",
              "value": 0.41
            }
          ]
        },
        {
          "id": 506,
          "name": "enterprise-c",
          "type": "",
          "x": 1300,
          "y": 650,
          "width": 0,
          "height": 0,
          "rotation": 0,
          "visible": true,
          "polyline": [
            {
              "x": 0,
              "y": 0
            },
            {
              "x": 150,
              "y": 0
            },
            {
              "x": 150,
              "y": 30
            },
            {
              "x": 0,
              "y": 30
            }
          ],
          "properties": [
            {
              "name": "usage",
              "type": "string",
              "value": "actor"
            },
            {
              "name": "skin",
              "type": "string",
              "value": "f7"
            },
            {
              "name": "speed",
              "type": "float",
              "value": 18
            },
            {
              "name": "phase",
              "type": "float",
              "value": 0.67
            }
          ]
        },
        {
          "id": 507,
          "name": "enterprise-d",
          "type": "",
          "x": 1605,
          "y": 640,
          "width": 0,
          "height": 0,
          "rotation": 0,
          "visible": true,
          "polyline": [
            {
              "x": 0,
              "y": 0
            },
            {
              "x": 165,
              "y": 0
            },
            {
              "x": 165,
              "y": 20
            },
            {
              "x": 0,
              "y": 20
            }
          ],
          "properties": [
            {
              "name": "usage",
              "type": "string",
              "value": "actor"
            },
            {
              "name": "skin",
              "type": "string",
              "value": "f8"
            },
            {
              "name": "speed",
              "type": "float",
              "value": 20
            },
            {
              "name": "phase",
              "type": "float",
              "value": 0.91
            }
          ]
        },
        {
          "id": 508,
          "name": "employee-a1",
          "type": "",
          "x": 80,
          "y": 705,
          "width": 0,
          "height": 0,
          "rotation": 0,
          "visible": true,
          "polyline": [
            {
              "x": 0,
              "y": 0
            },
            {
              "x": 250,
              "y": 0
            },
            {
              "x": 250,
              "y": -15
            },
            {
              "x": 0,
              "y": -15
            }
          ],
          "properties": [
            {
              "name": "usage",
              "type": "string",
              "value": "actor"
            },
            {
              "name": "skin",
              "type": "string",
              "value": "f2"
            },
            {
              "name": "speed",
              "type": "float",
              "value": 25
            },
            {
              "name": "phase",
              "type": "float",
              "value": 0.03
            }
          ]
        },
        {
          "id": 509,
          "name": "employee-a2",
          "type": "",
          "x": 120,
          "y": 630,
          "width": 0,
          "height": 0,
          "rotation": 0,
          "visible": true,
          "polyline": [
            {
              "x": 0,
              "y": 0
            },
            {
              "x": 300,
              "y": 0
            },
            {
              "x": 300,
              "y": 20
            },
            {
              "x": 0,
              "y": 20
            }
          ],
          "properties": [
            {
              "name": "usage",
              "type": "string",
              "value": "actor"
            },
            {
              "name": "skin",
              "type": "string",
              "value": "f3"
            },
            {
              "name": "speed",
              "type": "float",
              "value": 23
            },
            {
              "name": "phase",
              "type": "float",
              "value": 0.25
            }
          ]
        },
        {
          "id": 510,
          "name": "employee-a3",
          "type": "",
          "x": 250,
          "y": 900,
          "width": 0,
          "height": 0,
          "rotation": 0,
          "visible": true,
          "polyline": [
            {
              "x": 0,
              "y": 0
            },
            {
              "x": 430,
              "y": 0
            },
            {
              "x": 430,
              "y": 20
            },
            {
              "x": 0,
              "y": 20
            }
          ],
          "properties": [
            {
              "name": "usage",
              "type": "string",
              "value": "actor"
            },
            {
              "name": "skin",
              "type": "string",
              "value": "f5"
            },
            {
              "name": "speed",
              "type": "float",
              "value": 24
            },
            {
              "name": "phase",
              "type": "float",
              "value": 0.48
            }
          ]
        },
        {
          "id": 511,
          "name": "employee-a4",
          "type": "",
          "x": 610,
          "y": 920,
          "width": 0,
          "height": 0,
          "rotation": 0,
          "visible": true,
          "polyline": [
            {
              "x": 0,
              "y": 0
            },
            {
              "x": 90,
              "y": 0
            },
            {
              "x": 90,
              "y": 30
            },
            {
              "x": 0,
              "y": 30
            }
          ],
          "properties": [
            {
              "name": "usage",
              "type": "string",
              "value": "actor"
            },
            {
              "name": "skin",
              "type": "string",
              "value": "f8"
            },
            {
              "name": "speed",
              "type": "float",
              "value": 22
            },
            {
              "name": "phase",
              "type": "float",
              "value": 0.73
            }
          ]
        },
        {
          "id": 512,
          "name": "employee-b1",
          "type": "",
          "x": 450,
          "y": 875,
          "width": 0,
          "height": 0,
          "rotation": 0,
          "visible": true,
          "polyline": [
            {
              "x": 0,
              "y": 0
            },
            {
              "x": 250,
              "y": 0
            },
            {
              "x": 250,
              "y": 15
            },
            {
              "x": 0,
              "y": 15
            }
          ],
          "properties": [
            {
              "name": "usage",
              "type": "string",
              "value": "actor"
            },
            {
              "name": "skin",
              "type": "string",
              "value": "f1"
            },
            {
              "name": "speed",
              "type": "float",
              "value": 25
            },
            {
              "name": "phase",
              "type": "float",
              "value": 0.12
            }
          ]
        },
        {
          "id": 513,
          "name": "employee-b2",
          "type": "",
          "x": 520,
          "y": 940,
          "width": 0,
          "height": 0,
          "rotation": 0,
          "visible": true,
          "polyline": [
            {
              "x": 0,
              "y": 0
            },
            {
              "x": 180,
              "y": 0
            },
            {
              "x": 180,
              "y": 30
            },
            {
              "x": 0,
              "y": 30
            }
          ],
          "properties": [
            {
              "name": "usage",
              "type": "string",
              "value": "actor"
            },
            {
              "name": "skin",
              "type": "string",
              "value": "f6"
            },
            {
              "name": "speed",
              "type": "float",
              "value": 21
            },
            {
              "name": "phase",
              "type": "float",
              "value": 0.64
            }
          ]
        },
        {
          "id": 514,
          "name": "employee-c1",
          "type": "",
          "x": 1250,
          "y": 650,
          "width": 0,
          "height": 0,
          "rotation": 0,
          "visible": true,
          "polyline": [
            {
              "x": 0,
              "y": 0
            },
            {
              "x": 260,
              "y": 0
            },
            {
              "x": 260,
              "y": 30
            },
            {
              "x": 0,
              "y": 30
            }
          ],
          "properties": [
            {
              "name": "usage",
              "type": "string",
              "value": "actor"
            },
            {
              "name": "skin",
              "type": "string",
              "value": "f4"
            },
            {
              "name": "speed",
              "type": "float",
              "value": 25
            },
            {
              "name": "phase",
              "type": "float",
              "value": 0.36
            }
          ]
        },
        {
          "id": 515,
          "name": "employee-c2",
          "type": "",
          "x": 1220,
          "y": 875,
          "width": 0,
          "height": 0,
          "rotation": 0,
          "visible": true,
          "polyline": [
            {
              "x": 0,
              "y": 0
            },
            {
              "x": 215,
              "y": 0
            },
            {
              "x": 215,
              "y": 15
            },
            {
              "x": 0,
              "y": 15
            }
          ],
          "properties": [
            {
              "name": "usage",
              "type": "string",
              "value": "actor"
            },
            {
              "name": "skin",
              "type": "string",
              "value": "f7"
            },
            {
              "name": "speed",
              "type": "float",
              "value": 22
            },
            {
              "name": "phase",
              "type": "float",
              "value": 0.84
            }
          ]
        },
        {
          "id": 516,
          "name": "employee-d1",
          "type": "",
          "x": 1460,
          "y": 900,
          "width": 0,
          "height": 0,
          "rotation": 0,
          "visible": true,
          "polyline": [
            {
              "x": 0,
              "y": 0
            },
            {
              "x": 380,
              "y": 0
            },
            {
              "x": 380,
              "y": 20
            },
            {
              "x": 0,
              "y": 20
            }
          ],
          "properties": [
            {
              "name": "usage",
              "type": "string",
              "value": "actor"
            },
            {
              "name": "skin",
              "type": "string",
              "value": "f3"
            },
            {
              "name": "speed",
              "type": "float",
              "value": 24
            },
            {
              "name": "phase",
              "type": "float",
              "value": 0.56
            }
          ]
        },
        {
          "id": 517,
          "name": "employee-unemployed",
          "type": "",
          "x": 1450,
          "y": 920,
          "width": 0,
          "height": 0,
          "rotation": 0,
          "visible": true,
          "polyline": [
            {
              "x": 0,
              "y": 0
            },
            {
              "x": 350,
              "y": 0
            },
            {
              "x": 350,
              "y": 30
            },
            {
              "x": 0,
              "y": 30
            }
          ],
          "properties": [
            {
              "name": "usage",
              "type": "string",
              "value": "actor"
            },
            {
              "name": "skin",
              "type": "string",
              "value": "f6"
            },
            {
              "name": "speed",
              "type": "float",
              "value": 16
            },
            {
              "name": "phase",
              "type": "float",
              "value": 0.44
            }
          ]
        }
      ]
    },
    {
      "id": 9,
      "name": "portals",
      "type": "objectgroup",
      "draworder": "topdown",
      "visible": true,
      "opacity": 1,
      "objects": [
        {
          "id": 800,
          "name": "government-entrance",
          "type": "",
          "x": 960,
          "y": 522,
          "width": 1,
          "height": 1,
          "rotation": 0,
          "visible": true,
          "properties": [
            {
              "name": "ownerId",
              "type": "string",
              "value": "government"
            }
          ]
        },
        {
          "id": 801,
          "name": "company-a-entrance",
          "type": "",
          "x": 245,
          "y": 602,
          "width": 1,
          "height": 1,
          "rotation": 0,
          "visible": true,
          "properties": [
            {
              "name": "ownerId",
              "type": "string",
              "value": "company-a"
            }
          ]
        },
        {
          "id": 802,
          "name": "company-b-entrance",
          "type": "",
          "x": 575,
          "y": 732,
          "width": 1,
          "height": 1,
          "rotation": 0,
          "visible": true,
          "properties": [
            {
              "name": "ownerId",
              "type": "string",
              "value": "company-b"
            }
          ]
        },
        {
          "id": 803,
          "name": "company-c-entrance",
          "type": "",
          "x": 1375,
          "y": 607,
          "width": 1,
          "height": 1,
          "rotation": 0,
          "visible": true,
          "properties": [
            {
              "name": "ownerId",
              "type": "string",
              "value": "company-c"
            }
          ]
        },
        {
          "id": 804,
          "name": "company-d-entrance",
          "type": "",
          "x": 1690,
          "y": 727,
          "width": 1,
          "height": 1,
          "rotation": 0,
          "visible": true,
          "properties": [
            {
              "name": "ownerId",
              "type": "string",
              "value": "company-d"
            }
          ]
        },
        {
          "id": 810,
          "name": "bus-stop-east",
          "type": "",
          "x": 1655,
          "y": 880,
          "width": 1,
          "height": 1,
          "rotation": 0,
          "visible": true,
          "properties": [
            {
              "name": "ownerId",
              "type": "string",
              "value": "bus-shelter"
            }
          ]
        },
        {
          "id": 820,
          "name": "government-hr",
          "template": "templates/government_hr_node.tj",
          "x": 900,
          "y": 560,
          "width": 0,
          "height": 0,
          "rotation": 0,
          "visible": true
        },
        {
          "id": 821,
          "name": "government-finance",
          "template": "templates/government_finance_node.tj",
          "x": 940,
          "y": 560,
          "width": 0,
          "height": 0,
          "rotation": 0,
          "visible": true
        },
        {
          "id": 822,
          "name": "government-industry",
          "template": "templates/government_industry_node.tj",
          "x": 980,
          "y": 560,
          "width": 0,
          "height": 0,
          "rotation": 0,
          "visible": true
        },
        {
          "id": 823,
          "name": "government-regulation",
          "template": "templates/government_regulation_node.tj",
          "x": 1020,
          "y": 560,
          "width": 0,
          "height": 0,
          "rotation": 0,
          "visible": true
        }
      ]
    },
    {
      "id": 10,
      "name": "zones",
      "type": "objectgroup",
      "draworder": "topdown",
      "visible": false,
      "opacity": 0.35,
      "objects": [
        {
          "id": 700,
          "name": "vehicle-zone",
          "type": "",
          "x": 0,
          "y": 720,
          "width": 1920,
          "height": 130,
          "rotation": 0,
          "visible": true,
          "properties": [
            {
              "name": "kind",
              "type": "string",
              "value": "vehicle"
            }
          ]
        },
        {
          "id": 701,
          "name": "walk-north",
          "type": "",
          "x": 0,
          "y": 600,
          "width": 1920,
          "height": 110,
          "rotation": 0,
          "visible": true,
          "properties": [
            {
              "name": "kind",
              "type": "string",
              "value": "walk"
            }
          ]
        },
        {
          "id": 702,
          "name": "walk-south",
          "type": "",
          "x": 0,
          "y": 850,
          "width": 1920,
          "height": 210,
          "rotation": 0,
          "visible": true,
          "properties": [
            {
              "name": "kind",
              "type": "string",
              "value": "walk"
            }
          ]
        },
        {
          "id": 703,
          "name": "civic-zone",
          "type": "",
          "x": 780,
          "y": 500,
          "width": 360,
          "height": 205,
          "rotation": 0,
          "visible": true,
          "properties": [
            {
              "name": "kind",
              "type": "string",
              "value": "public"
            }
          ]
        }
      ]
    }
  ]
}
